X: 31
T: la Rose
%R: reel, shottish
B: Stewart "A Select Collection of Airs, Jigs, Marches and Reels", ca.1784, p.15 #31
F: http://imslp.org/wiki/A_Select_Collection_of_Airs,_Jigs,_Marches_and_Reels_%28Various%29
Z: 2017 John Chambers <jc:trillian.mit.edu>
M: 2/4
L: 1/16
K: D
|:\
dcde d2f2 | e2f2g2f2 |\
e2d2c2d2 | edcB A2G2 |\
F2d2c2d2 | e2f2g2e2 |\
f2d2A2c2 | d4 D4 :|
|:\
A2FD B2GE | A2FD B2GE |\
F2d2c2d2 | edcB A2G2 |\
F2d2G2e2 | A2f2B2g2 |\
f2d2 cdec | d4 D4 :|
|:\
b2GA B2G2 | a2FG A2F2 |\
E2ef gfed | cdec A2G2 |\
F2ab a2F2 | G2b2E2g2 |\
f2d2 cdec | d4 D4 :|
